!!!OTL: Zhiwen Jiangjieshi
!!!ARE: Asia, China,ÿHebei Baxian
!! IV, 46
!!!SCT: C2146
!!!YEM: Copyright 1995, estate of Helmut Schaffrath.
**kern
*ICvox
*Ivox
*M2/4
*k[b-]
*F:
{8a
8a
8a
16g
16a
=1
8g
8e
4d
=2
16dd
16dd
16dd
16cc
8dd
8a
=3
4cc
4cc}
=4
{8dd
16dd
16cc
8.a
16cc
=5
8dd
16dd
16cc
4a
=6
8cc
8cc
8dd
8a
=7
8g
8e
4d}
=8
{8a
8a
8a
16g
16a
=9
8g
8e
4d
=10
16dd
16dd
16dd
16cc
8dd
8a
=11
4cc
4cc}
=12
{8dd
16dd
16cc
8a
16a
16cc
=13
8dd
16dd
16cc
4a
=14
8cc
8cc
8dd
8a
=15
8g
8e
4d}
=16
{8.a
16a
8a
8a
=17
8g
8e
4d
=18
16dd
16dd
16dd
16cc
8dd
8a
=19
4cc
4cc}
=20
{8f
4f
8g
=21
8a
8cc
4dd
=22
8cc
16a
16cc
8g
8e
=23
4d
4r}
==
!!!AGN: Xiaodiao
!!!AMT: simple duple
!!!AIN: vox
!!!EED: Helmut Schaffrath
!!!EEV: 1.0
*-
